public/icons/icon/share-2.svg

<svg width="30" height="30" viewBox="0 0 30 30" fill="none" xmlns="http://www.w3.org/2000/svg">
<path d="M20.5 9H23C24.1046 9 25 9.89543 25 11V23C25 24.1046 24.1046 25 23 25H7C5.89543 25 5 24.1046 5 23V11C5 9.89543 5.89543 9 7 9H9.5M15 17V3M10.5 5.5L15 1L19.5 5.5" stroke="black" stroke-width="2" stroke-linecap="round" stroke-linejoin="round"/>
</svg>

<svg xmlns="http://www.w3.org/2000/svg" width="30" height="30" fill="none"><path stroke="#000" stroke-linecap="round" stroke-linejoin="round" stroke-width="2" d="M20.5 9H23a2 2 0 0 1 2 2v12a2 2 0 0 1-2 2H7a2 2 0 0 1-2-2V11a2 2 0 0 1 2-2h2.5m5.5 8V3m-4.5 2.5L15 1l4.5 4.5"/></svg>
